X: 1
T: Frenchman's Bellyache
S: http://oldfiddlersclubri.com/wp-content/uploads/2016/04/2017-Playbook-B.pdf
R: reel
Z: 2018 John Chambers <jc:trillian.mit.edu>
M: C|
L: 1/8
K: G
|: "G"g2gg g2a2 | g2f2 e2d2 | "D"f2ff e2d2 |\
[1 f2ff e2d2 :|[2 (3BcB A2 "G"G4 :|
|: "G"G2BB G2BB | G2B2 "D"d4 |\
[1,3 "G"G2BB G2BB | "D"(3GAG F2 E2E2 :|\
[2,4 "D"f2ff e2d2 | (3BcB A2 "G"G2 |]
